svg/Outline/mic-circle.svg

<svg viewBox="0 0 24 24" xmlns="http://www.w3.org/2000/svg" width="24" height="24"><path d="M17.6 10.3c.5.04.86.48.81.97l-.03.28a6.4 6.4 0 0 1-1.83 3.67l-.23.22a6.5 6.5 0 0 1-3.4 1.59v2.13a.9.9 0 0 1-1.8 0v-2.13a6.4 6.4 0 0 1-3.65-1.8l-.2-.21a6.4 6.4 0 0 1-1.63-3.47l-.03-.28v-.1a.9.9 0 0 1 1.78-.15l.02.1.02.2c.12.92.53 1.79 1.17 2.48l.14.15a4.65 4.65 0 0 0 6.38.15l.17-.15a4.6 4.6 0 0 0 1.33-2.84l.01-.09a.9.9 0 0 1 .97-.73"/><path d="M12 5a3.1 3.1 0 0 1 3.13 3.05v2.7a3.1 3.1 0 0 1-3.12 3.06 3.1 3.1 0 0 1-3.13-3.05V8.05A3.1 3.1 0 0 1 12.01 5"/><path fill-rule="evenodd" d="M12 1A11 11 0 1 1 12 23A11 11 0 0 1 12 1M12 2.8A9.2 9.2 0 1 0 12 21.2A9.2 9.2 0 0 0 12 2.8" clip-rule="evenodd"/></svg>

<svg viewBox="0 0 24 24" xmlns="http://www.w3.org/2000/svg" width="24" height="24"><path d="M17.6 10.3C18.1 10.34 18.46 10.78 18.41 11.27L18.38 11.55A6.4 6.4 0 0 1 16.55 15.22L16.32 15.44A6.5 6.5 0 0 1 12.92 17.03L12.92 19.16A.9 .9 0 0 1 11.12 19.16L11.12 17.03A6.4 6.4 0 0 1 7.47 15.23L7.27 15.02A6.4 6.4 0 0 1 5.64 11.55L5.61 11.17A.9 .9 0 0 1 7.39 11.02L7.43 11.32C7.55 12.24 7.96 13.11 8.6 13.8L8.74 13.95A4.65 4.65 0 0 0 15.12 14.1L15.29 13.95A4.6 4.6 0 0 0 16.62 11.11L16.63 11.02A.9 .9 0 0 1 17.6 10.29"/><path d="M12 5a3.1 3.1 0 0 1 3.13 3.05v2.7a3.1 3.1 0 0 1-3.12 3.06 3.1 3.1 0 0 1-3.13-3.05V8.05A3.1 3.1 0 0 1 12.01 5"/><path fill-rule="evenodd" d="M12 1A11 11 0 1 1 12 23A11 11 0 0 1 12 1M12 2.8A9.2 9.2 0 1 0 12 21.2A9.2 9.2 0 0 0 12 2.8" clip-rule="evenodd"/></svg>
